X:204
T:I’d Rather Have a Piece Than a Kiss of my Jo. RH.204
R:jig
S:Rev.R.Harrison’s MS,c1815,Cumbria
N:Key sig 2# (A mixolydian) in MS. Sounds best in
N:A dorian (1#), as above. PJH.
O:England
A:Temple Sowerby,Cumbria
Z:vmp.Simon Wilson. Review PJH, 2008.
M:6/8
L:1/8
Q:3/8=120
K:Ador
f|gfe edc|gfg GAB|gfe edB|dBA A2f|\
gfe edB|gfg a2b|gfe efg|dBA A2:|!
|:B/c/|d2B d2B|gfg GAB|d2B d2g|ecA ABc|\
d2B d2B|gfg a2b|gfe efg|dBA A2:|!
|:e/f/|gdB gdB|gfg GAB|gdB gdB|ecA A2e/f/|\
gdB gdB|gfg a2b|gfe efg|dBA A2:|!
|:B/c/|dBG dBG|gfg GAB|dBG Bdg|ecA A2B/c/|\
dBG dBG|gfg a2b|gfe efg|dBA A2:|
W:Key sig 2# (A mixolydian) in MS. Sounds best in A dorian (1#), as above. PJH

